assets/svg/trolley-o.svg

<?xml version="1.0" encoding="UTF-8"?>
<svg width="1000px" height="1000px" viewBox="0 0 1000 1000" version="1.1" xmlns="http://www.w3.org/2000/svg" xmlns:xlink="http://www.w3.org/1999/xlink">
    <!-- Generator: sketchtool 52.4 (67378) - http://www.bohemiancoding.com/sketch -->
    <title>trolley-o</title>
    <desc>Created with sketchtool.</desc>
    <g id="新版图标" stroke="none" stroke-width="1" fill="none" fill-rule="evenodd">
        <g id="trolley-o" fill="#333333" fill-rule="nonzero">
            <g id="直角-库存调拨">
                <path d="M888.888889,166.666667 L842.29349,166.666667 C827.651738,166.666667 815.52393,178.031751 814.574209,192.642669 L785.216494,644.294216 C782.36733,688.12697 745.983906,722.222222 702.058651,722.222222 L111.111111,722.222222 L111.111111,666.666667 L702.058651,666.666667 C716.700403,666.666667 728.82821,655.301583 729.777932,640.690665 L759.135647,189.039118 C761.984811,145.206363 798.368234,111.111111 842.29349,111.111111 L888.888889,111.111111 L888.888889,166.666667 Z M222.222222,166.666667 L611.111111,166.666667 C641.793597,166.666667 666.666667,191.539736 666.666667,222.222222 L666.666667,555.555556 C666.666667,586.238042 641.793597,611.111111 611.111111,611.111111 L222.222222,611.111111 C191.539736,611.111111 166.666667,586.238042 166.666667,555.555556 L166.666667,222.222222 C166.666667,191.539736 191.539736,166.666667 222.222222,166.666667 Z M222.222222,222.222222 L222.222222,555.555556 L611.111111,555.555556 L611.111111,222.222222 L222.222222,222.222222 Z M333.333333,361.111111 L333.333333,305.555556 L500,305.555556 L500,361.111111 L333.333333,361.111111 Z M208.333333,888.888889 C185.321469,888.888889 166.666667,870.234087 166.666667,847.222222 C166.666667,824.210358 185.321469,805.555556 208.333333,805.555556 C231.345198,805.555556 250,824.210358 250,847.222222 C250,870.234087 231.345198,888.888889 208.333333,888.888889 Z M652.777778,888.888889 C629.765913,888.888889 611.111111,870.234087 611.111111,847.222222 C611.111111,824.210358 629.765913,805.555556 652.777778,805.555556 C675.789642,805.555556 694.444444,824.210358 694.444444,847.222222 C694.444444,870.234087 675.789642,888.888889 652.777778,888.888889 Z" id="直角-采购入库－线"></path>
            </g>
        </g>
    </g>
</svg>

<svg width="1000" height="1000" xmlns="http://www.w3.org/2000/svg"><path d="M888.889 166.667h-46.596c-14.641 0-26.77 11.365-27.719 25.976l-29.358 451.651c-2.849 43.833-39.232 77.928-83.157 77.928H111.11v-55.555H702.06c14.641 0 26.77-11.365 27.719-25.976l29.358-451.652c2.849-43.833 39.232-77.928 83.157-77.928h46.596v55.556zm-666.667 0h388.89c30.682 0 55.555 24.873 55.555 55.555v333.334c0 30.682-24.873 55.555-55.556 55.555H222.222c-30.682 0-55.555-24.873-55.555-55.555V222.222c0-30.682 24.873-55.555 55.555-55.555zm0 55.555v333.334h388.89V222.222h-388.89zm111.111 138.89v-55.556H500v55.555H333.333zm-125 527.777c-23.012 0-41.666-18.655-41.666-41.667s18.654-41.666 41.666-41.666c23.012 0 41.667 18.654 41.667 41.666 0 23.012-18.655 41.667-41.667 41.667zm444.445 0c-23.012 0-41.667-18.655-41.667-41.667s18.655-41.666 41.667-41.666 41.666 18.654 41.666 41.666c0 23.012-18.654 41.667-41.666 41.667z" fill="#333" fill-rule="nonzero"/></svg>
